IconSet/eva icons.iconjar/icons/behance-outline.svg

<svg xmlns="http://www.w3.org/2000/svg" viewBox="0 0 24 24"><g data-name="Layer 2"><g data-name="behance"><rect width="24" height="24" opacity="0"/><path d="M12 2a10 10 0 1 0 10 10A10 10 0 0 0 12 2zm0 18a8 8 0 1 1 8-8 8 8 0 0 1-8 8z"/><path d="M10.52 11.78a1.4 1.4 0 0 0 1.12-1.43c0-1-.77-1.6-1.94-1.6H7v6.5h2.7c1.3-.05 2.3-.72 2.3-1.88a1.52 1.52 0 0 0-1.48-1.59zM8.26 9.67h1.15c.6 0 .95.32.95.85s-.38.89-1.25.89h-.85zm1 4.57h-1V12.3h1.23c.75 0 1.17.38 1.17 1s-.42.94-1.44.94z"/><path d="M14.75 10.3a2.11 2.11 0 0 0-2.28 2.25V13a2.15 2.15 0 0 0 2.34 2.31A2 2 0 0 0 17 13.75h-1.21a.9.9 0 0 1-1 .63 1.07 1.07 0 0 1-1.09-1.19v-.14H17v-.47a2.12 2.12 0 0 0-2.25-2.28zm1 2h-2.02a1 1 0 0 1 1-1.09 1 1 0 0 1 1 1.09z"/><rect x="13.25" y="9.2" width="3" height=".5"/></g></g></svg>

<svg xmlns="http://www.w3.org/2000/svg" viewBox="0 0 24 24"><defs><style>.cls-1{fill:#fff;opacity:0;}.cls-2{fill:#231f20;}</style></defs><title>behance</title><g id="Layer_2" data-name="Layer 2"><g id="behance"><g id="behance-2" data-name="behance"><rect class="cls-1" width="24" height="24"/><path class="cls-2" d="M12,2A10,10,0,1,0,22,12,10,10,0,0,0,12,2Zm0,18a8,8,0,1,1,8-8A8,8,0,0,1,12,20Z"/><path class="cls-2" d="M10.52,11.78v0a1.4,1.4,0,0,0,1.12-1.43c0-1-.77-1.6-1.94-1.6H7v6.5H9.7C11,15.2,12,14.53,12,13.37A1.52,1.52,0,0,0,10.52,11.78ZM8.26,9.67H9.41c.6,0,.95.32.95.85s-.38.89-1.25.89H8.26Zm1,4.57h-1V12.3H9.49c.75,0,1.17.38,1.17,1S10.24,14.24,9.22,14.24Z"/><path class="cls-2" d="M14.75,10.3a2.11,2.11,0,0,0-2.28,2.25V13a2.15,2.15,0,0,0,2.34,2.31A2,2,0,0,0,17,13.75H15.79a.9.9,0,0,1-1,.63,1.07,1.07,0,0,1-1.09-1.19v-.14H17v-.47A2.12,2.12,0,0,0,14.75,10.3Zm1,2H13.73a1,1,0,0,1,1-1.09,1,1,0,0,1,1,1.09Z"/><rect class="cls-2" x="13.25" y="9.2" width="3" height="0.5"/></g></g></g></svg>
